**kern	**kern	**dynam
*part1	*part1	*part1
*staff2	*staff1	*
*I"Piano	*	*
*clefF4	*clefG2	*
*k[f#c#]	*k[f#c#]	*
=1	=1	=1
!	!LO:TX:a:Bi:t=ritard.	!
(4GG	16r	.
.	8.B 8.d [8.e	.
4AA)	4G 4c# 4e]	.
=	=	=
*^	*	*
*	*^	*	*
16rF	2DD	(8DD/L	2ryy	mp
(16F#' 16d	.	.	.	.
16rF	.	8FF#/	.	.
16A' 16c#	.	.	.	.
16rF	.	8GG/	.	.
16G' 16B	.	.	.	.
16rF	.	8AA/J)	.	.
16G') 16c#	.	.	.	.
=	=	=	=	=
16rF	2DD	(8DD/L	2ryy	.
(16F#' 16d	.	.	.	.
16rF	.	8FF#/	.	.
16A' 16c#	.	.	.	.
16rF	.	8GG/	.	.
16G' 16B	.	.	.	.
16rF	.	8AA/J)	.	.
16G') 16c#	.	.	.	.
=	=	=	=	=
16rF	4DD	8rGG	2ryy	.
(16F#' 16d	.	.	.	.
16rF	.	4AA/	.	.
16G' 16B	.	.	.	.
16rF	4DD	.	.	.
16F#' 16d	.	.	.	.
16rF	.	[8AA/	.	.
16G') 16B	.	.	.	.
=	=	=	=	=
16rF	4DD	8AA/]	2ryy	.
(16F#' 16d	.	.	.	.
16rF	.	4AA/	.	.
16G' 16B	.	.	.	.
16rF	4DD	.	.	.
16F#' 16d	.	.	.	.
16rF	.	[8AA/	.	.
[16G') [16B	.	.	.	.
=	=	=	=	=
(4G] 4B]	4.DD 4.AA]	4.d/	4.ryy	.
8F#) 8A	.	.	.	.
!	!	!	!	!LO:DY:a
8ryy	8AAA' 8AA	8ryy	8A' 8c# 8e	mf
*v	*v	*v	*	*
=	=	=
8DD' 8D	8A' 8d 8f#	.
8r	8r	.
==	==	==
*-	*-	*-
!!!system-decoration: {(s1,s2)}
